X:7907
T:Neu jahr fest
T:Jewish New year's song
C:anon.
Z:Transcribed by Frank Nordberg - http://www.musicaviva.com
F:http://abc.musicaviva.com/tunes/anon/neu-jahr-fest/neu-jahr-fest-1.abc
M:C
L:1/8
K:Em
"^Andante"B|e3^d f3e|egfe ^d=cB2|B2^c^de3e|
gfe^de4|f3ga3b|g3bf4|e2fg agfe|
^defdB4|B2^c^de3e|gfe^d ebb2|bfage3B||
"^Faster"E2EF GG2G|FEGFE3D|G2GA BGcB|AGBAG3B|
e2ee edcB|AcecB3B|B2BB ee2e|BAGFE2 ez|]
W:
W:
W:  From Musica Viva - http://www.musicaviva.com
W:  the Internet center for free sheet music downloads.
